!!!COM: Clementi, Muzio
!!!CDT: 1752/01/23/-1832/03/10/
!!!ODT: ~1800///
!!!OTL: Sonata No. 2 in G Major, Op. 36, Mvmt. 3
!!!OPS: Op. 36
!!!ONM: No. 2
!!!OMV: 3. Allegro
**kern	**kern	**dynam
*staff2	*staff1	*staff1/2
*Ipiano	*Ipiano	*Ipiano
*clefF4	*clefG2	*clefG2
*k[f#]	*k[f#]	*k[f#]
*M3/8	*M3/8	*M3/8
*MM132	*MM132	*MM132
=1-	=1-	=1-
8G\L	8g/L	.
8B\	8g/	.
8d\J	8g/J	.
=2	=2	=2
8F#\L	8a\L	.
8A\	8dd\	.
8d\J	8cc\J	.
=3	=3	=3
8G\L	8b/L	.
8B\	16g/L	.
.	16a/	.
8d\J	16b/	.
.	16g/JJ	.
=4	=4	=4
8F#\L	8a/	.
8A\	8r	.
8d\J	8r	.
=5	=5	=5
8G\L	8gg\L	.
8B\	8gg\	.
8d\J	8gg\J	.
=6	=6	=6
8F#\L	16aa\LL	.
.	16gg\	.
8A\	16ff#\	.
.	16ee\	.
8d\J	16dd\	.
.	16cc\JJ	.
=7	=7	=7
8G\L	8b/L	.
8B\	16g/L	.
.	16a/	.
8d\J	16b/	.
.	16g/JJ	.
=8	=8	=8
8F#\L	8a/	.
8A\	8r	.
8d\J	8r	.
=9	=9	=9
4.c\	16r	.
.	16e/LL	.
.	16f#/	.
.	16g#/	.
.	16a/	.
.	16b/JJ	.
=10	=10	=10
8r	16cc\LL	.
.	16dd\J	.
8c\L	8ee\	.
8c\J	8ee\J	.
=11	=11	=11
4.B\	16r	.
.	16d/LL	.
.	16e/	.
.	16f#/	.
.	16gn/	.
.	16a/JJ	.
=12	=12	=12
8r	16b\LL	.
.	16cc\J	.
8B\L	8dd\	.
8B\J	8dd\J	.
=13	=13	=13
8A\L	16cc/LL	.
.	16d/	.
8G\	16b/	.
.	16d/	.
8F#\J	16a/	.
.	16d/JJ	.
=14	=14	=14
8G\L	16b/LL	.
.	16d/	.
8F#\	16a/	.
.	16d/	.
8E\J	16g/	.
.	16d/JJ	.
=15	=15	=15
4.D\	16f#/LL	.
.	16e/	.
.	16d/	.
.	16e/	.
.	16f#/	.
.	16g/JJ	.
=16	=16	=16
4.r	16a\LL	>
.	16b\	.
.	16dd\	.
.	16cc\	.
.	16b\	.
.	16a\JJ	.
=17	=17	=17
8G\L	8g/L	p
8B\	8g/	.
8d\J	8g/J	.
=18	=18	=18
8F#\L	8a\L	.
8A\	8dd\	.
8d\J	8cc\J	.
=19	=19	=19
8G\L	8b/L	.
8B\	16g/L	.
.	16a/	.
8d\J	16b/	.
.	16g/JJ	.
=20	=20	=20
8F#\L	8a/	.
8A\	8r	.
8d\J	8r	.
=21	=21	=21
8G\L	8gg\L	<
8B\	8gg\	.
8d\J	8gg\J	.
=22	=22	=22
8F#\L	16aa\LL	>
.	16gg\	.
8A\	16ff#\	.
.	16ee\	.
8d\J	16dd\	.
.	16cc\JJ	.
=23	=23	=23
8G\L	8b/L	.
8B\	16g/L	.
.	16a/	.
8d\J	16b/	.
.	16g/JJ	.
=24	=24	=24
8F#\L	8a/	.
8A\	8r	.
8d\J	8r	.
=25	=25	=25
4.c\	16r	.
.	16e/LL	.
.	16f#/	.
.	16g#/	.
.	16a/	.
.	16b/JJ	.
=26	=26	=26
8r	16cc\LL	.
.	16dd\J	.
8c\L	8ee\	.
8c\J	8ee\J	.
=27	=27	=27
4.B\	16r	.
.	16d/LL	.
.	16e/	.
.	16f#/	.
.	16gn/	.
.	16a/JJ	.
=28	=28	=28
8r	16b\LL	.
.	16cc\	<
8B\L	16dd\	.
.	16ee\	.
8B\J	16ff#\	.
.	16gg\JJ	.
=29	=29	=29
8C\L	16ff#\LL	f
.	16ee\	.
8c\	16dd\	.
.	16cc\	.
8c\J	16b\	.
.	16a\JJ	.
=30	=30	=30
8D\L	4g/	.
8d\	.	.
8d\J	16b/LL	.
.	16a/JJ	.
=31	=31	=31
8G\L	4g/	.
8B\	.	.
8d\J	8r	.
=32	=32	=32
8G\L	8.ddd\L	.
8B\	.	.
.	16bb\L	.
8d\J	16ddd\	.
.	16bb\JJ	.
=33	=33	=33
8G\L	8gg\L	.
8B\	8gg\	.
8d\J	8gg\J	.
=34	=34	=34
8G\L	8.bb\L	.
8B\	.	.
.	16gg\L	.
8d\J	16bb\	.
.	16gg\JJ	.
=35	=35	=35
8G\L	8ee\L	.
8c#\	8ee\	.
8e\J	8ee\J	.
=36	=36	=36
8G\L	16ff#\LL	.
.	16ee\	.
8c#\	16dd#\	.
.	16ee\	.
8e\J	16ff#\	.
.	16gg\JJ	.
=37	=37	=37
8F#\L	16bb\LL	.
.	16aa\	.
8A\	16gg\	.
.	16ff#\	.
8d\J	16ee\	.
.	16ddn\JJ	.
=38	=38	=38
4G\	16cc#/LL	.
.	16b/	.
.	16a/	.
.	16g/	.
8G#\	16f#/	.
.	16e/JJ	.
=39	=39	=39
8AA\L	4d/	.
8A\	.	.
8A\J	8c#/	.
=40	=40	=40
8A\L	4.r	.
8A\	.	.
8A\J	.	.
=41	=41	=41
(8d\L	(4f#/	p
8A\)	.	.
8A\J	8a/	.
=42	=42	=42
(8c#\L	4e/	.
8A\)	.	.
8A\J	8a/	.
=43	=43	=43
(8d\L	4g/	.
8A\)	.	.
8A\J	8f#/)	.
=44	=44	=44
(8c#\L	8e/	.
8A\)	8r	.
8A\J	8r	.
=45	=45	=45
(8d\L	4f#/	.
8A\)	.	.
8A\J	16b/LL	.
.	16a/JJ	.
=46	=46	=46
8c#\L	4e/	.
8A\	.	.
8A\J	16b/LL	.
.	16a/JJ	.
=47	=47	=47
8d\L	4g/	.
8A\	.	.
8A\J	8f#/	.
=48	=48	=48
8c#\L	8e/	.
8A\	8r	.
8A\J	8r	.
=49	=49	=49
4.D\ 4.F#\ 4.A\	16r	.
.	16dd\LL	f
.	16cc#\	.
.	16dd\	.
.	16ee\	.
.	16dd\JJ	.
=50	=50	=50
8G\L	16b\LL	.
.	16dd\	.
8A\	16a\	.
.	16dd\	.
8B\J	16g\	.
.	16dd\JJ	.
=51	=51	=51
4.D\ 4.F#\ 4.A\	16r	.
.	16dd\LL	.
.	16cc#\	.
.	16dd\	.
.	16ee\	.
.	16dd\JJ	.
=52	=52	=52
8G#\L	16b\LL	.
.	16dd\	.
8A\	16a\	.
.	16dd\	.
8B\J	16g#\	.
.	16dd\JJ	.
=53	=53	=53
16AA\LL	8a/L	.
16A\	.	.
16AA\	8dd/	.
16A\	.	.
16AA\	8f#/J	.
16A\JJ	.	.
=54	=54	=54
16AA\LL	4.e/	.
16A\	.	.
16AA\	.	.
16A\	.	.
16AA\	.	.
16A\JJ	.	.
=55	=55	=55
8D\L	8d/	.
8F#\	8r	.
8A\J	8r	.
=56	=56	=56
8A\L	4.r	.
8A\	.	.
8A\J	.	.
=57	=57	=57
(8d\L	(4f#/	p
8A\)	.	.
8A\J	16b/LL	.
.	16a/JJ	.
=58	=58	=58
8c#\L	4e/	.
8A\	.	.
8A\J	16b/LL	.
.	16a/JJ	.
=59	=59	=59
8d\L	4g/	.
8A\	.	.
8A\J	8f#/	.
=60	=60	=60
8c#\L	8e/)	.
8A\	8r	.
8A\J	8r	.
=61	=61	=61
8d\L	16f#/LL	.
.	16a/	.
8A\	16g#/	.
.	16a/	.
8A\J	16b/	.
.	16a/JJ	.
=62	=62	=62
8c#\L	16e/LL	.
.	16a/	.
8A\	16g#/	.
.	16a/	.
8A\J	16b/	.
.	16a/JJ	.
=63	=63	=63
8d\L	4gn/	.
8A\	.	.
8A\J	8f#/	.
=64	=64	=64
8c#\L	8e/	.
8A\	8r	.
8A\J	8r	.
=65	=65	=65
4.D\ 4.F#\ 4.A\	16r	.
.	16dd\LL	f
.	16ee\	.
.	16dd\	.
.	16cc#\	.
.	16dd\JJ	.
=66	=66	=66
8B\L	16g\LL	.
.	16dd\	.
8A\	16a\	.
.	16dd\	.
8G\J	16b\	.
.	16dd\JJ	.
=67	=67	=67
4.D\ 4.F#\ 4.A\	16r	.
.	16dd\LL	.
.	16ee\	.
.	16dd\	.
.	16cc#\	.
.	16dd\JJ	.
=68	=68	=68
8B\L	16g#\LL	.
.	16dd\	.
8A\	16a\	.
.	16dd\	.
8G#\J	16b\	.
.	16dd\JJ	.
=69	=69	=69
16AA\LL	8a/L	.
16A\	.	.
16AA\	8dd/	.
16A\	.	.
16AA\	8f#/J	.
16A\JJ	.	.
=70	=70	=70
16AA\LL	8a/L	.
16A\	.	.
16AA\	8gn/	.
16A\	.	.
16AA\	16e/L	.
16A\JJ	16f#/JJ	.
=71	=71	=71
4.D\	8d/L	.
.	8d/	.
.	8d/J	.
=72	=72	=72
4.r	8c#/ 8e/L	>
.	8c#/ 8e/	.
.	8c#/ 8e/J	.
=73	=73	=73
4.D\	8cn/ 8f#/L	.
.	8c/ 8f#/	.
.	8c/ 8f#/J	.
=74	=74	=74
4.r	4.r	.
=75	=75	=75
8G\L	8g/L	p
8B\	8g/	.
8d\J	8g/J	.
=76	=76	=76
8F#\L	8a\L	.
8A\	8dd\	.
8d\J	8cc\J	.
=77	=77	=77
8G\L	8b/L	.
8B\	16g/L	.
.	16a/	.
8d\J	16b/	.
.	16g/JJ	.
=78	=78	=78
8F#\L	8a/	.
8A\	8r	.
8d\J	8r	.
=79	=79	=79
8G\L	8gg\L	<
8B\	8gg\	.
8d\J	8gg\J	.
=80	=80	=80
8F#\L	16aa\LL	f
.	16gg\	>
8A\	16ff#\	.
.	16ee\	.
8d\J	16dd\	.
.	16cc\JJ	.
=81	=81	=81
8G\L	8b/L	.
8B\	16g/L	.
.	16a/	.
8d\J	16b/	.
.	16g/JJ	.
=82	=82	=82
8F#\L	8a/	.
8A\	8r	.
8d\J	8r	.
=83	=83	=83
4.c\	16r	.
.	16e/LL	.
.	16f#/	.
.	16g#/	.
.	16a/	.
.	16b/JJ	.
=84	=84	=84
8r	16cc\LL	.
.	16dd\J	.
8c\L	8ee\	.
8c\J	8ee\J	.
=85	=85	=85
4.B\	16r	.
.	16d/LL	.
.	16e/	.
.	16f#/	.
.	16gn/	.
.	16a/JJ	.
=86	=86	=86
8r	16b\LL	.
.	16cc\J	.
8B\L	8dd\	.
8B\J	8dd\J	.
=87	=87	=87
8A\L	16cc/LL	.
.	16d/	.
8G\	16b/	.
.	16d/	.
8F#\J	16a/	.
.	16d/JJ	.
=88	=88	=88
8G\L	16b/LL	.
.	16d/	.
8F#\	16a/	.
.	16d/	.
8E\J	16g/	.
.	16d/JJ	.
=89	=89	=89
4.D\	16f#/LL	.
.	16e/	.
.	16d/	.
.	16e/	.
.	16f#/	.
.	16g/JJ	.
=90	=90	=90
4.r	16a\LL	>
.	16b\	.
.	16dd\	.
.	16cc\	.
.	16b\	.
.	16a\JJ	.
=91	=91	=91
8G\L	8g/L	p
8B\	8g/	.
8d\J	8g/J	.
=92	=92	=92
8F#\L	8a\L	.
8A\	8dd\	.
8d\J	8cc\J	.
=93	=93	=93
8G\L	8b/L	.
8B\	16g/L	.
.	16a/	.
8d\J	16b/	.
.	16g/JJ	.
=94	=94	=94
8F#\L	8a/	.
8A\	8r	.
8d\J	8r	.
=95	=95	=95
8G\L	8gg\L	<
8B\	8gg\	.
8d\J	8gg\J	.
=96	=96	=96
8F#\L	16aa\LL	f
.	16gg\	>
8A\	16ff#\	.
.	16ee\	.
8d\J	16dd\	.
.	16cc\JJ	.
=97	=97	=97
8G\L	8b/L	.
8B\	16g/L	.
.	16a/	.
8d\J	16b/	.
.	16g/JJ	.
=98	=98	=98
8F#\L	8a/	.
8A\	8r	.
8d\J	8r	.
=99	=99	=99
4.c\	16r	.
.	16e/LL	.
.	16f#/	.
.	16g#/	.
.	16a/	.
.	16b/JJ	.
=100	=100	=100
8r	16cc\LL	.
.	16dd\J	.
8c\L	8ee\	.
8c\J	8ee\J	.
=101	=101	=101
4.B\	16r	.
.	16d/LL	.
.	16e/	.
.	16f#/	.
.	16gn/	.
.	16a/JJ	.
=102	=102	=102
8r	16b\LL	<
.	16cc\	.
8B\L	16dd\	.
.	16ee\	.
8B\J	16ff#\	.
.	16gg\JJ	.
=103	=103	=103
8C\L	16ff#\LL	f
.	16ee\	>
8c\	16dd\	.
.	16cc\	.
8c\J	16b\	.
.	16a\JJ	.
=104	=104	=104
8D\L	4g/	.
8d\	.	.
8d\J	16b/LL	.
.	16a/JJ	.
=105	=105	=105
8GG/L	16b/LL	f
.	16a/	.
8BB/	16g/	.
.	16f#/	.
8D/J	16g/	.
.	16a/JJ	.
=106	=106	=106
8G\L	16b\LL	.
.	16cc\	.
8B\	16dd\	.
.	16ee\	.
8G\J	16ff#\	.
.	16gg\JJ	.
=107	=107	=107
8C\L	16ff#\LL	.
.	16ee\	.
8c\	16dd\	.
.	16cc\	.
8c\J	16b\	.
.	16a\JJ	.
=108	=108	=108
8D\L	4g/	.
8d\	.	.
8d\J	16b/LL	.
.	16a/JJ	.
=109	=109	=109
8GG/L	8g/	.
8G/	8r	.
8D/J	8r	.
=110	=110	=110
8BB/L	8b\ 8dd\ 8gg\	.
8D/	8r	.
8BB/J	8r	.
=111	=111	=111
4.GG/	4.B/ 4.d/ 4.g/	.
==	==	==
*-	*-	*-
!!!ENC: Craig Stuart Sapp
!!!END: 2004/11/26/
